X: 8
T: Master Crowley's
R: reel
M: 4/4
L: 1/8
K: Edor
|:Be e2 Befe|edBd Adfd|Be e2 Begb|afde feed|
Be e2 Befe|edBd Adfd|Be e2 Begb|1 afdf feed:|2 afdf feeA||
|:B2 ab fgeg|fd d2 Adfd|B2 ab fgeg|fdAF FE E2|
B2 ab fgeg|fd d2 Adfd|EFGA BABd|1 AFdF FE E2:|2 AFdF FEEd||


Tune 281	Setting 28006

